X: 70
T:Teetotaller's Reel Descant
% Nottingham Music Database
S:Kerrs/Eric Foxley
M:4/4
L:1/4
K:G
P:A
(3G/2A/2^A/2|"G"BB/2A/2 B/2c/2d/2e/2|"G"g/2B/2d/2B/2 g/2B/2d/2B/2|\
"Em"g/2e/2B/2g/2 e/2B/2g/2B/2|"Em"gg "D7"f/2e/2d/2c/2|
"G"BB/2A/2 B/2c/2d/2e/2|"G"g/2B/2d/2B/2 g/2B/2d/2B/2|\
"Em"g/2e/2B/2g/2 e/2B/2g/2B/2|"D7"f/2e/2d/2c/2 "G"B:|
P:B
B|"Em"e/2g/2g/2f/2 g3/2a/2|"Em"b/2g/2c'/2a/2 b/2a/2g/2f/2|\
"D"d/2f/2f/2e/2 ff/2g/2|"D"a/2f/2c'/2a/2 b/2a/2g/2f/2|
"Em""C"e/2g/2g/2f/2 g3/2a/2|"Em""C"b/2g/2c'/2a/2 b/2a/2g/2f/2|\
"Em""G"e/2d/2c/2B/2 A/2B/2c/2d/2|"D7"ed/2c/2 "G"B:|<end>
<start>
